Simply-Cyan-Circles/scalable/apps/xfce4-panel.svg

<svg xmlns="http://www.w3.org/2000/svg" width="48" height="48" viewBox="0 0 12.7 12.7"><path fill="#5beedc" d="M6.344.073a6.29 6.29 0 0 0-6.29 6.29 6.29 6.29 0 0 0 6.29 6.288 6.29 6.29 0 0 0 6.29-6.289 6.29 6.29 0 0 0-6.29-6.29zm-.018.936a5.407 5.407 0 0 1 4.109 1.901H2.212a5.407 5.407 0 0 1 4.114-1.9zM1.608 3.78h1.086c.03 0 .061.007.088.019a.336.336 0 0 1 .157.17.52.52 0 0 1 .04.197v4.392a.52.52 0 0 1-.04.198.481.481 0 0 1-.041.071.319.319 0 0 1-.116.099c-.027.008-.058.018-.088.018H1.55a5.407 5.407 0 0 1-.307-.698V4.592a5.407 5.407 0 0 1 .365-.812zm2.06.002c.011-.002.021 0 .034 0h7.338a5.407 5.407 0 0 1 .693 2.635 5.407 5.407 0 0 1-.63 2.528H3.701a.224.224 0 0 1-.089-.017.327.327 0 0 1-.156-.17.52.52 0 0 1-.041-.197V4.253c.005.008.012.014.022.014.016 0 .022-.011.013-.026-.016-.027-.029-.027-.035-.013v-.06a.52.52 0 0 1 .04-.198.326.326 0 0 1 .157-.17c.016-.007.038-.016.054-.019zm-.09.547c-.005.003-.004.01.003.022.025.043.308.203.714.403.627.31 1.177.68 1.517 1.022.104.106.19.204.189.219a.64.64 0 0 1-.08.15 1.929 1.929 0 0 0-.152.308c-.063.166-.072.233-.083.61l-.013.423-.085.086c-.146.147-.207.236-.208.303-.003.092.048.102.214.045.08-.024.155-.047.167-.035.034.023.024.102-.04.318a.755.755 0 0 0-.045.24c.008.024.023.043.032.043.01 0 .147-.101.305-.227.157-.124.315-.247.349-.272.06-.045.076-.044.417.035.34.075.384.084 1.005.087.356.003.722-.007.811-.022l.163-.027.306.142c.412.191.634.272.694.255.125-.036.087-.182-.115-.445-.155-.204-.125-.227.179-.134.298.091.396.107.42.069.039-.058-.006-.152-.164-.344-.266-.325-.252-.4.105-.565.473-.218.84-.425.993-.56.13-.114.153-.147.156-.23.01-.366-.336-.597-1.196-.798a2.839 2.839 0 0 1-.338-.09c-.013-.008-.03-.11-.037-.225-.024-.401-.093-.56-.259-.597-.071-.017-.1-.007-.166.055-.107.101-.137.285-.084.507.05.215.05.243.003.242-.022 0-.087-.096-.149-.218-.167-.336-.262-.419-.402-.35-.122.061-.18.33-.122.567.023.092.015.116-.098.307l-.122.207-.225.001c-.157.002-.38-.028-.737-.098-.694-.134-.79-.138-1.01-.035-.096.045-.188.075-.204.062a7.938 7.938 0 0 1-.277-.24c-.484-.432-.812-.626-1.444-.855a8.184 8.184 0 0 1-.639-.26c-.16-.078-.233-.109-.248-.1zm-2.337.27v3.64a5.407 5.407 0 0 1-.322-1.822 5.407 5.407 0 0 1 .322-1.818zm10.154.524c-.009 0-.023.008-.043.024-.052.04-.215.356-.216.42 0 .066.07-.023.193-.245.07-.13.093-.2.066-.199zm-.379.123c-.03 0-.061.088-.065.186-.003.094.044.037.07-.085.014-.061.012-.1-.005-.1zm-1.083.443c.058-.005.095.05.084.143-.009.082-.022.102-.079.105-.132.011-.182-.15-.07-.223a.14.14 0 0 1 .065-.025zm-.314.218c.006-.013.034.006.08.067a.28.28 0 0 0 .128.086c.044.012.08.031.08.045 0 .01-.044.023-.096.022-.078-.002-.103-.019-.145-.092-.04-.07-.054-.115-.047-.128zm.649.506c.026-.002.034.01.033.035 0 .02-.062.062-.136.09v.002c-.254.1-.288.032-.038-.077a.56.56 0 0 1 .14-.05zm.108.177c.032.013.028.075-.024.127-.09.09-.218.154-.239.118-.018-.031.131-.194.218-.238.018-.01.034-.01.045-.007zM2.103 9.791h8.441a5.407 5.407 0 0 1-4.218 2.032 5.407 5.407 0 0 1-4.223-2.032z"/></svg>

<?xml version="1.0" encoding="UTF-8" standalone="no"?>
<svg
   xmlns:dc="http://purl.org/dc/elements/1.1/"
   xmlns:cc="http://creativecommons.org/ns#"
   xmlns:rdf="http://www.w3.org/1999/02/22-rdf-syntax-ns#"
   xmlns:svg="http://www.w3.org/2000/svg"
   xmlns="http://www.w3.org/2000/svg"
   xmlns:sodipodi="http://sodipodi.sourceforge.net/DTD/sodipodi-0.dtd"
   xmlns:inkscape="http://www.inkscape.org/namespaces/inkscape"
   width="48"
   height="48"
   viewBox="0 0 12.7 12.7"
   version="1.1"
   id="svg4"
   sodipodi:docname="xfce4-panel.svg"
   inkscape:version="0.92.4 (5da689c313, 2019-01-14)">
  <metadata
     id="metadata10">
    <rdf:RDF>
      <cc:Work
         rdf:about="">
        <dc:format>image/svg+xml</dc:format>
        <dc:type
           rdf:resource="http://purl.org/dc/dcmitype/StillImage" />
        <dc:title></dc:title>
      </cc:Work>
    </rdf:RDF>
  </metadata>
  <defs
     id="defs8" />
  <sodipodi:namedview
     pagecolor="#ffffff"
     bordercolor="#666666"
     borderopacity="1"
     objecttolerance="10"
     gridtolerance="10"
     guidetolerance="10"
     inkscape:pageopacity="0"
     inkscape:pageshadow="2"
     inkscape:window-width="1087"
     inkscape:window-height="480"
     id="namedview6"
     showgrid="false"
     inkscape:zoom="4.9166667"
     inkscape:cx="2.1355932"
     inkscape:cy="24"
     inkscape:window-x="0"
     inkscape:window-y="25"
     inkscape:window-maximized="0"
     inkscape:current-layer="svg4" />
  <path
     d="m 6.344,0.073 a 6.29,6.29 0 0 0 -6.29,6.29 6.29,6.29 0 0 0 6.29,6.288 6.29,6.29 0 0 0 6.29,-6.289 6.29,6.29 0 0 0 -6.29,-6.29 z M 6.326,1.009 A 5.407,5.407 0 0 1 10.435,2.91 H 2.212 A 5.407,5.407 0 0 1 6.326,1.01 Z M 1.608,3.78 h 1.086 c 0.03,0 0.061,0.007 0.088,0.019 a 0.336,0.336 0 0 1 0.157,0.17 0.52,0.52 0 0 1 0.04,0.197 V 8.558 A 0.52,0.52 0 0 1 2.939,8.756 0.481,0.481 0 0 1 2.898,8.827 0.319,0.319 0 0 1 2.782,8.926 C 2.755,8.934 2.724,8.944 2.694,8.944 H 1.55 A 5.407,5.407 0 0 1 1.243,8.246 V 4.592 A 5.407,5.407 0 0 1 1.608,3.78 Z m 2.06,0.002 c 0.011,-0.002 0.021,0 0.034,0 h 7.338 a 5.407,5.407 0 0 1 0.693,2.635 5.407,5.407 0 0 1 -0.63,2.528 H 3.701 A 0.224,0.224 0 0 1 3.612,8.928 0.327,0.327 0 0 1 3.456,8.758 0.52,0.52 0 0 1 3.415,8.561 V 4.253 C 3.42,4.261 3.427,4.267 3.437,4.267 3.453,4.267 3.459,4.256 3.45,4.241 3.434,4.214 3.421,4.214 3.415,4.228 V 4.168 A 0.52,0.52 0 0 1 3.455,3.97 0.326,0.326 0 0 1 3.612,3.8 C 3.628,3.793 3.65,3.784 3.666,3.781 Z m -0.09,0.547 c -0.005,0.003 -0.004,0.01 0.003,0.022 0.025,0.043 0.308,0.203 0.714,0.403 0.627,0.31 1.177,0.68 1.517,1.022 0.104,0.106 0.19,0.204 0.189,0.219 A 0.64,0.64 0 0 1 5.921,6.145 1.929,1.929 0 0 0 5.769,6.453 C 5.706,6.619 5.697,6.686 5.686,7.063 L 5.673,7.486 5.588,7.572 C 5.442,7.719 5.381,7.808 5.38,7.875 5.377,7.967 5.428,7.977 5.594,7.92 5.674,7.896 5.749,7.873 5.761,7.885 5.795,7.908 5.785,7.987 5.721,8.203 a 0.755,0.755 0 0 0 -0.045,0.24 c 0.008,0.024 0.023,0.043 0.032,0.043 0.01,0 0.147,-0.101 0.305,-0.227 C 6.17,8.135 6.328,8.012 6.362,7.987 6.422,7.942 6.438,7.943 6.779,8.022 7.119,8.097 7.163,8.106 7.784,8.109 8.14,8.112 8.506,8.102 8.595,8.087 L 8.758,8.06 9.064,8.202 C 9.476,8.393 9.698,8.474 9.758,8.457 9.883,8.421 9.845,8.275 9.643,8.012 9.488,7.808 9.518,7.785 9.822,7.878 10.12,7.969 10.218,7.985 10.242,7.947 10.281,7.889 10.236,7.795 10.078,7.603 9.812,7.278 9.826,7.203 10.183,7.038 10.656,6.82 11.023,6.613 11.176,6.478 11.306,6.364 11.329,6.331 11.332,6.248 11.342,5.882 10.996,5.651 10.136,5.45 A 2.839,2.839 0 0 1 9.798,5.36 C 9.785,5.352 9.768,5.25 9.761,5.135 9.737,4.734 9.668,4.575 9.502,4.538 9.431,4.521 9.402,4.531 9.336,4.593 9.229,4.694 9.199,4.878 9.252,5.1 9.302,5.315 9.302,5.343 9.255,5.342 9.233,5.342 9.168,5.246 9.106,5.124 8.939,4.788 8.844,4.705 8.704,4.774 8.582,4.835 8.524,5.104 8.582,5.341 8.605,5.433 8.597,5.457 8.484,5.648 L 8.362,5.855 8.137,5.856 C 7.98,5.858 7.757,5.828 7.4,5.758 6.706,5.624 6.61,5.62 6.39,5.723 6.294,5.768 6.202,5.798 6.186,5.785 A 7.938,7.938 0 0 1 5.909,5.545 C 5.425,5.113 5.097,4.919 4.465,4.69 A 8.184,8.184 0 0 1 3.826,4.43 C 3.666,4.352 3.593,4.321 3.578,4.33 Z m -2.337,0.27 v 3.64 A 5.407,5.407 0 0 1 0.919,6.417 5.407,5.407 0 0 1 1.241,4.599 Z m 10.154,0.524 c -0.009,0 -0.023,0.008 -0.043,0.024 -0.052,0.04 -0.215,0.356 -0.216,0.42 0,0.066 0.07,-0.023 0.193,-0.245 0.07,-0.13 0.093,-0.2 0.066,-0.199 z m -0.379,0.123 c -0.03,0 -0.061,0.088 -0.065,0.186 -0.003,0.094 0.044,0.037 0.07,-0.085 0.014,-0.061 0.012,-0.1 -0.005,-0.1 z M 9.933,5.689 C 9.991,5.684 10.028,5.739 10.017,5.832 10.008,5.914 9.995,5.934 9.938,5.937 9.806,5.948 9.756,5.787 9.868,5.714 A 0.14,0.14 0 0 1 9.933,5.689 Z M 9.619,5.907 C 9.625,5.894 9.653,5.913 9.699,5.974 A 0.28,0.28 0 0 0 9.827,6.06 c 0.044,0.012 0.08,0.031 0.08,0.045 0,0.01 -0.044,0.023 -0.096,0.022 C 9.733,6.125 9.708,6.108 9.666,6.035 9.626,5.965 9.612,5.92 9.619,5.907 Z m 0.649,0.506 c 0.026,-0.002 0.034,0.01 0.033,0.035 0,0.02 -0.062,0.062 -0.136,0.09 V 6.54 C 9.911,6.64 9.877,6.572 10.127,6.463 a 0.56,0.56 0 0 1 0.14,-0.05 z m 0.108,0.177 c 0.032,0.013 0.028,0.075 -0.024,0.127 -0.09,0.09 -0.218,0.154 -0.239,0.118 -0.018,-0.031 0.131,-0.194 0.218,-0.238 0.018,-0.01 0.034,-0.01 0.045,-0.007 z M 2.103,9.791 h 8.441 A 5.407,5.407 0 0 1 6.326,11.823 5.407,5.407 0 0 1 2.103,9.791 Z"
     id="path2"
     inkscape:connector-curvature="0"
     style="fill:#5beedc" />
</svg>
